X: 36254
T: Seal Hunter's Fling, The
R: strathspey
M: 4/4
K: Gmajor
B2BG AGEF|G2Bd edgd|B2BG AGEA|GABG A2G2:|
G2Bd edgd|B2BG AGEA|G2Bd edgd|B2BG A2G2:|

